X: 11
T: No_108_Song_During_Rain_Divination.krn
N: Derived from No_108_Song_During_Rain_Divination.krn
%%abc-version 2.0
%%abcx-abcm2ps-target-version 5.9.1 (29 Sep 2008)
%%abc-creator hum2abc beta
%%abcx-conversion-date 2019/03/15 08:37:56
%%humdrum-veritas 96520105
%%humdrum-veritas-data 615570658
%%linebreak <none>
%%barnumbers 0
L: 1/4
M: 2/4
K: Ab clef=bass
[K:clef=bass][M:2/4]E2 ||  
[M:3/4]EC/B,/-B, ||  
[M:2/4]E3/B,/ | 
CB, | 
F,E, | 
A,2 | 
F,E,/C,/ ||  
[M:3/4]E,F,F,/E,/ | 
E,3/D,/D, ||  
[M:2/4]D,2 | 
D,z | 
F,2 | 
B,B, | 
A,E, | 
F,C,/C,/ | 
E,E, | 
F,(F,/E,/) ||  
[M:3/4]E,2E, | 
E,2z |]  



